X:443
T:Polska efter Löfgren
T:(SvL Östergötland 443)
O:Kisa, Östergötland
B:Svenska Låtar Östergötland
S:Lars Löfgren
S:Carl Johan Nilsson
R:Polska
M:3/4
L:1/16
K:G
G2(3(AGF) G2A2 B2G2|[G,D]2d2 d2e2 f2d2|d2g2 g2g2 b2g2|g2g2 (ag)fg d4:|
|:B2d2 (edBd) (edBd)|(A2c2) (dcAc) (dcAc)|B2d2 (edBd) (edBd)|(A2c2) (dcAc) (dcAc)|
d2ef (gf)ge d2dc|(dc)Bc A2(AF) G4:|

